X: 181
M: 6/8
L: 1/8
K: Amix
|:\
[A3D3] [c3E3] | B>AB c<AF | ECE A2{de}f | edc (B2A) :|
|:\
c>de e>fg | f>ed c>BA | c>de e2{d}e | f2^g a3 |\
edc a^gf | edc (B2A) | .a3 .a3 | A>dc (B2A) :|

